static/asset/back-to-topic.svg

<svg width="22" height="24" xmlns="http://www.w3.org/2000/svg"><g fill="none" fill-rule="evenodd"><path fill="#C71B0A" d="M0 0h22v24H0z"/><path d="M17 7h1V5H4v2h13zm0 6h1v-2H4v2h13zm-5 6h1v-2H4v2h8z" fill="#FFF"/></g></svg>

<?xml version="1.0" encoding="UTF-8"?>
<svg width="22px" height="24px" viewBox="0 0 22 24" version="1.1" xmlns="http://www.w3.org/2000/svg" xmlns:xlink="http://www.w3.org/1999/xlink">
    <!-- Generator: sketchtool 41.2 (35397) - http://www.bohemiancoding.com/sketch -->
    <title>28CA358E-3958-4FFF-82BD-E03431C312CE</title>
    <desc>Created with sketchtool.</desc>
    <defs></defs>
    <g id="Desktop" stroke="none" stroke-width="1" fill="none" fill-rule="evenodd">
        <g id="Desktop---Articles-list-in-Topic---Scrolling-with-Navbar" transform="translate(-433.000000, -28.000000)">
            <g id="Group" transform="translate(433.000000, 25.000000)">
                <g id="back-to-topics" transform="translate(0.000000, 3.000000)">
                    <rect id="Rectangle-6" fill="#C71B0A" x="0" y="0" width="22" height="24"></rect>
                    <path d="M17,7 L18,7 L18,5 L17,5 L5,5 L4,5 L4,7 L5,7 L17,7 Z M17,13 L18,13 L18,11 L17,11 L5,11 L4,11 L4,13 L5,13 L17,13 Z M12,19 L13,19 L13,17 L12,17 L5,17 L4,17 L4,19 L5,19 L12,19 Z" id="Combined-Shape" fill="#FFFFFF"></path>
                </g>
            </g>
        </g>
    </g>
</svg>
